X:1
T:Sanguinis à fluxu
T:Daniel Friderici
T:Source : Bicinia sacra---Rostock---J.Richelius---1642. Editor : André Vierendeels (13/07/17).
T:Notes : Original clefs : C1, C1 Editorial accidentals above the staff
T:Sanguinis à fluxu
T:©
T:©
T:©
C:Daniel Friderici
Z:©
%%score [ 1 2 ]
L:1/8
Q:1/4=120
M:2/2
K:F
V:1 treble nm="Soprano 1" snm="S 1"
V:2 treble nm="Soprano 2" snm="S 2"
V:1
 G6 G2 | B6 c2 | d4 _e4 | d6 c2 | B2 A2 G4- | G2 A2 B2 c2 | d2 cd _e4 | d8 | z8 | D6 D2 | %10
w: San- gui-|nis _|_ _|à flu-||||xu,||san- gui-|
"^#" F6 G2 | A4 B4 | A6 G2 |"^-natural" F2 E2 D4- | D2 E2 F2 G2 | A2 GA B4 | A4 D4 | F2 EF G4 | %18
w: nis _|_ à|flu- *||||xu, à|flu- * * *|
 D4 d4 | d2 d4 d2 | d2 c3 c d2 | A2 d4 ^c2 | d8 :: D6 CD | E2 DE F4- | F2 EF G2 FG | A2 GF G4 | %27
w: xu, ta-|cto, ta- cto|fit fae- mi- na|Chri- sto mun-|da:|Fi- * *||||
 F4 D4- | D2 CD E2 DE | F2 ED E4 | F4 A4 | F2 G4 A2 | B6 A2 | G4 G4 | ^F8 | %35
w: * de,|_ fi- * * * *||de, fi-|de Chri- stum|tan- *|* gi-|to,|
"^-natural" D2 E2 F2 G2 | A2 B2 c4 | A4 F2 G2 | A2 B2 c2 A2 | d2 F2 G2 A2 | B2 c2 d2 c2 | %41
w: mun- * * *||dus, mun- *||||
 B2 A2 G2 A2 | B4 A4 | G2 A2 B2 c2 | d4 d4 | c2 B2 B2 AG | A8 | G8 :| %48
w: |* dus,|mun- * * *|* dus|e- * * * *||ris.|
V:2
 z8 | z8 | G6 G2 | B6 c2 | d4 _e4 | d6 c2 | B2 A2 G4- | G2 A2 B2 c2 | d2 cd _e4 | d8 | z8 | D6 D2 | %12
w: ||San- gui-|nis _|_ à|flu- *||||xu,||san- gui-|
 ^F6 G2 | A4 B4 | A6 G2 | F2 E2 D4- | D2 E2 F2 G2 | A2 GA B4 | A4 G4 | G2 G4 G2 | B2 F3 F F2 | %21
w: nis _|_ à|flu- *||||xu, ta-|cto, ta- cto|fit fae- mi- na|
 F2 G2 A4 | D8 :: z8 | z4 D4- | D2 CD E2 DE | F2 ED E4 | F4 F4- | F2 EF G2 FG | A2 GF G4 | F4 F4 | %31
w: Chri- sto mun-|da:||Fi-|||de, fi-|||de, fi-|
 D2 E4 ^F2 | G6 A2 | B4 B4 | A4 D2 E2 | F2 G2 A2 B2 | c4 A4 | F2 G2 A2 B2 | c2 G2 A2 F2 | %39
w: de Chri- stum|tan- *|* gi-|to, mun- *||* dus,|mun- * * *||
 G2 A2 B2 c2 | d2 c2 B2 A2 | G2 A2 B2 F2 | G4 D4 | d2 c2 B2 A2 | G4 B4 | A2 G2 G4- | G2 ^FE F4 | %47
w: |||* dus,|mun- * * *|* dus,|e- * *||
 G8 :| %48
w: ris.|

